!!!!SEGMENT: pl-wtm--r-1335_stefani-jozef--allegro-moderato.krn
!!!cenid: 18xx:1842
!!!COM: Stefani, Józef
!!!COM-rismid: pe30024097
!!!CDT: 1800/04/16-1876/03/19
!!!CNT: Polish
!!!OTL: Allegro moderato
!!!PDT:
!!!AGN: Secular
!!!SMS-siglum: PL-Wtm
!!!SMS-shelfmark: R 1335
!!!SMS-shelfwork: W
!!!SMS-variant:
!!!SMS-altvar:
!!!NIFC-rismid: 1001119389
!!!system-decoration: {(s1,s2)}
!!!key:
**kern	**kern	**dynam
*part1	*part1	*part1
*staff2	*staff1	*
*Iempty	*Ipiano	*
*	*I"Piano	*
*clefF4	*clefG2	*
*k[]	*k[]	*
*C:	*C:	*
*M3/4	*M3/4	*
*>[A,B,C,B,C,D]	*>[A,B,C,B,C,D]	*
=1	=1	=1
*>A	*>A	*
*2\right	*2\right	*
!LO:TX:t=P:problem:all\right:global	!LO:TX:t=P:problem:all\right:global	!
!	!	!LO:DY:b:rj
8cL 8C\	8cccL 8gg 8ee\	f
16cL 16C\	16eeeL 16ccc 16gg\	.
16cJJ 16C\	16eeeJJ 16ccc 16gg\	.
8c 8C\	8eee 8ccc 8gg\	.
8r	8r	.
4c 4C\	4ccc 4gg 4ee\	.
=2	=2	=2
8GL 8GG/	8bbL 8gg 8dd\	.
16GL 16GG/	16gggL 16bb 16gg\	.
16GJJ 16GG/	16gggJJ 16bb 16gg\	.
8G 8GG/	8ggg 8bb 8gg\	.
8r	8r	.
4G 4GG/	4ddd 4ff 4dd\	.
=3	=3	=3
8AL 8AA/	8cccL 8aa 8ee\	.
16AL 16AA/	16cccL 16aa 16ee\	.
16AJJ 16AA/	16cccJJ 16aa 16ee\	.
8A 8AA/	8ccc 8aa 8ee\	.
8r	8r	.
4F 4FF/	4ddd 4aa 4ff\	.
!!LO:LB:g=original
=4	=4	=4
4E 4EE/	4eee 4bb#X 4gg\	.
4r	4r	.
4F 4FF/	4ddd 4aa 4ff\	.
=5	=5	=5
4G 4GG/	4ccc 4gg 4ee\	.
8r	8r	.
16F#XLL 16FF#X/	16ff#XLL 16f#X\	.
16GJJ 16GG/	16ggJJ 16g\	.
16F#LL 16FF#/	16aaLL 16a\	.
16Fn 16FFn/	16bb 16b\	.
16E 16EE/	16ccc 16cc\	.
16DJJ 16DD/	16dddJJ 16dd\	.
=6	=6	=6
8CL 8CC/	8eeeL 8ee\	.
16CL 16CC/	16eeL 16cc 16g\	.
16CJJ 16CC/	16eeJJ 16cc 16g\	.
*tremolo	*tremolo	*
8CL 8CC/	8eeL 8cc 8g'>\	.
8CJ 8CC/	8eeJ 8cc 8g'>\	.
8A-XL 8AA-X\	8ff#XL 8dd 8cc'>\	.
8A-J 8AA-\	8ff#J 8dd 8cc'>\	.
*Xtremolo	*Xtremolo	*
!!LO:LB:g=original
=7	=7	=7
8GL 8GG\	8ggL 8dd 8b'>\	.
(>16F#X\L	(>16ff#X\L	.
16A\JJ	16aa\JJ	.
8G\L)	8gg\L)	.
(>16C#X\L	(>16cc#X\L	.
16E\JJ	16ee\JJ	.
8D/L)	8dd\L)	.
(<16AA#X/L	(>16a#X\L	.
16Cn/JJ	16ccn\JJ	.
=8	=8	=8
8BB/L)	8b/L)	.
(<16FF#X/L	(<16f#X/L	.
16AA/JJ	16a/JJ	.
8GG/)	8g/)	.
8r	8r	.
!	!LO:TX:b:Bi:t=attacca\nAll(egr)o. mod(era)to.	!
4G 4GG/	4gg 4g\	.
!!LO:PB:g=original
=9||	=9||	=9||
*>B	*>B	*
*^	*	*
!	!	!LO:TX:a:t=[segno]:problem	!
!	!	!LO:TX:a:Bi:t=Allegro moderato.	!
!	!	!	!LO:DY:b:rj
4C/	8C\L	16cc\LL	f
.	.	16ee\	.
.	8cJ 8G 8E\	16gg\	.
.	.	16ccc\JJ	.
4F/	8F\L	16cc\LL	.
.	.	16ff\	.
.	8cJ 8A\	16aa\	.
.	.	16ccc\JJ	.
!LO:TX:t=P:problem:mixed beam	!	!	!
8FF/L	4ryy	16gg\LL	.
.	.	16ff#X\	.
8BJ 8G 8F 8D\	.	16aa\	.
.	.	16gg\JJ	.
=10	=10	=10	=10
*rep	*rep	*	*
4C/	8C\L	16cc\LL	.
.	.	16ee\	.
.	8cJ 8G 8E\	16gg\	.
.	.	16ccc\JJ	.
4F/	8F\L	16cc\LL	.
.	.	16ff\	.
.	8cJ 8A\	16aa\	.
.	.	16ccc\JJ	.
!LO:TX:t=P:problem:mixed beam	!	!	!
8FF/L	4ryy	16gg\LL	.
.	.	16ff#X\	.
8BJ 8G 8F 8D\	.	16aa\	.
.	.	16gg\JJ	.
*Xrep	*Xrep	*	*
*v	*v	*	*
=11	=11	=11
*	*^	*
8cL 8G 8E 8C\	8cc\L	4ryy	.
16cL 16G 16E 16C\	16eeL 16cc 16g'>\	.	.
16cJJ 16G 16E 16C\	16eeJJ 16cc 16g'>\	.	.
!	!	!	!LO:DY:b:rj
8cL 8G 8E 8C\	(>8ee/L	8ccL 8g\	p
8B\	8dd/)	8dd\J	.
8A\	(>8ff/	4cc\	.
8G\J	8ee/J)	.	.
!!LO:LB:g=original
*	*v	*v	*
=12	=12	=12
8F\	8dd 8a/	.
8r	4dd 4f^</	.
8D\	.	.
8r	(<16eeLL 16g/	.
.	16ddJJ 16f/)	.
4A 4AA\	(<16cc#XLL 16e/	.
.	16dd 16f/	.
.	16ee 16g/	.
.	16cc#JJ 16e/)	.
=13	=13	=13
8AL 8D\	8ddL 8f/	.
16AL 16D\	16ddL 16f/	.
16AJJ 16D\	16ddJJ 16f/	.
8B 8G\	(>8ddL 8f/	.
8r	8cc 8e/)	.
4r	(>8ee 8g/	.
.	8ddJ 8f/)	.
=14	=14	=14
*^	*	*
4C/	8C\L	8cc 8e/	.
.	8GJ 8E\	4cc 4e^</	.
4C/	8C\L	.	.
.	8GJ 8E\	(<16ddLL 16f/	.
.	.	16ccJJ 16e/)	.
!LO:TX:t=P:problem:mixed beam	!	!	!
8GG/L	4ryy	(<16bLL 16d/	.
.	.	16cc 16e/	.
8GJ 8F 8D\	.	16dd 16f/	.
.	.	16bJJ 16d/)	.
!!LO:LB:g=original
*v	*v	*	*
=15	=15	=15
8G 8E 8C\	8cc 8e/	.
8r	(<16cc/LL	.
.	16b/JJ)	.
4r	(<16dd/LL	.
.	16cc/)	.
.	16b'</	.
.	16a'</JJ	.
4F 4D 4BB 4GG/	8g'</L	.
.	(>8qb\	.
.	16a/L)	.
.	16g'>/JJ	.
=16	=16	=16
8E 8C/	8g'</L	.
8r	(<16cc/L	.
.	16b/JJ)	.
4r	(<16dd/LL	.
.	16cc/)	.
.	16b'</	.
.	16a'</JJ	.
4F 4D 4BB 4GG/	8g'</L	.
.	(>8qb\	.
.	16a/L)	.
.	16g'>/JJ	.
=17	=17	=17
*^	*	*
!	!	!	!LO:DY:b:rj
4C/	8C\L	16cc\LL	f
.	.	16ee\	.
.	8cJ 8G 8E\	16gg\	.
.	.	16ccc\JJ	.
4F/	8F\L	16cc\LL	.
.	.	16ff\	.
.	8cJ 8A\	16aa\	.
.	.	16ccc\JJ	.
!LO:TX:t=P:problem:mixed beam	!	!	!
8FF/L	4ryy	16gg\LL	.
.	.	16ff#X\	.
8BJ 8G 8F 8D\	.	16aa\	.
.	.	16gg\JJ	.
!!LO:LB:g=original
=18	=18	=18	=18
4C/	8C\L	16cc\LL	.
.	.	16ee\	.
.	8cJ 8G 8E\	16gg\	.
.	.	16ccc\JJ	.
4F/	8F\L	16cc\LL	.
.	.	16ff\	.
.	8cJ 8A\	16aa\	.
.	.	16ccc\JJ	.
!LO:TX:t=P:problem:mixed beam	!	!	!
8FF/L	4ryy	16gg\LL	.
.	.	16ff#X\	.
8BJ 8G 8F 8D\	.	16aa\	.
.	.	16gg\JJ	.
*v	*v	*	*
=19	=19	=19
16cLL 16G 16E 16C\	(>16ee\LL	.
16c\	16cc\	.
16G\	16ee\	.
16E\JJ	16gg\J	.
4C\	8ccc\J)	.
.	(>8eeL 8cc'>\	.
4r	8ee 8cc'>\	.
.	8eeJ 8cc'>\)	.
=20	=20	=20
!	!	!LO:DY:b:rj
8E\L	(>8.eeL 8.cc\	p
8e\J	.	.
.	32ffLL 32dd\	.
.	32eeJJJ 32cc\)	.
*rep	*	*
8E\L	(>8.ddL 8.b\	.
8e\J	.	.
.	32eeLL 32cc\	.
.	32ddJJJ 32b\)	.
*Xrep	*	*
*rep	*	*
8E\L	(<8.ccL 8.a/	.
8e\J	.	.
.	32ddLL 32b/	.
.	32ccJJJ 32a/)	.
*Xrep	*	*
!!LO:LB:g=original
=21	=21	=21
8E\L	8bL 8g#X'>\	.
8e\J	8ffJ 8dd'>\	.
*rep	*	*
8E\L	(>16ffLL 16dd\	.
.	16eeJJ 16cc\)	.
8e\J	(>16eeLL 16cc\	.
.	16ddJJ 16b\)	.
*Xrep	*	*
*rep	*	*
8E\L	(>16ddLL 16b\	.
.	16ccJJ 16a\)	.
8e\J	(<16ccLL 16a/	.
.	16bJJ 16g#X/)	.
*Xrep	*	*
=22	=22	=22
8GL 8GG/	8cc#X 8a/	.
8AJ 8G 8E/	4cc#^>\	.
!LO:TX:t=P:problem:mixed beam	!	!
8GG/L	.	.
8AJ 8G 8E\	(>16ee\LL	.
.	16dd\JJ)	.
*rep	*	*
!LO:TX:t=P:problem:mixed beam	!	!
8GG/L	(>16cc#\LL	.
.	16dd\	.
8AJ 8G 8E\	16ee\	.
.	16cc#\JJ)	.
*Xrep	*	*
=23	=23	=23
8FF\L	8dd'>\L	.
8AJ 8D\	(>8aT>\	.
*rep	*	*
8FF\L	8dd\J)	.
8AJ 8D\	(>16aa\LL	.
.	32bb\L	.
.	32aa\JJJ	.
*Xrep	*	*
*rep	*	*
8FF\L	8ff\L)	.
8AJ 8D\	8ee\J	.
*Xrep	*	*
!!LO:LB:g=original
=24	=24	=24
8F#XL 8FF#X\	8dd\	.
8cJ 8A 8D\	4dd^>\	.
*rep	*	*
8F#L 8FF#\	.	.
8cJ 8A 8D\	(>16ee\LL	.
.	16dd\JJ)	.
*Xrep	*	*
*rep	*	*
8F#L 8FF#\	(<16cc/LL	.
.	16b/	.
8cJ 8A 8D\	16cc/	.
.	16a/JJ)	.
*Xrep	*	*
=25	=25	=25
*tremolo	*	*
16BLL 16G\	16g'</LL	.
16B 16G\	(<16b/	<
16B 16G\	16a/	.
16BJJ 16G\	16g/JJ)	.
16dLL 16A 16F#X\	16a'</LL	.
16d 16A 16F#\	(<16cc/	.
16d 16A 16F#\	16b/	.
16dJJ 16A 16F#\	16a/JJ)	.
16dLL 16B 16G 16Fn\	16b'</LL	.
16d 16B 16G 16F\	(<16dd/	.
16d 16B 16G 16F\	16cc/	.
16dJJ 16B 16G 16F\	16b/JJ)	[[
*Xtremolo	*	*
=26	=26	=26
*	*^	*
!	!	!	!LO:DY:b:rj
8c 8G 8E\	8cc\	8ryy	f
16cLL 16C\	16eeLL 16cc 16g/	8ryy	.
16cJJ 16C\	16eeJJ 16cc 16g/	.	.
8cL 8C\	(>8ee/L	8cc 8g\L	.
8B\	8dd/)	8dd\J	p
8A\	(>8ff/	4cc\	.
8G\J	8ee/J)	.	.
!!LO:PB:g=original
*	*v	*v	*
=27	=27	=27
8F\	8dd 8a/	.
8r	4dd 4f`>^</	.
8D\	.	.
8r	(>16eeLL 16g/	.
.	16ddJJ 16f/)	.
4A 4AA\	(>16cc#XLL 16e/	.
.	16dd 16f/	.
.	16ee 16g/	.
.	16cc#JJ 16e/)	.
=28	=28	=28
8AL 8D\	8ddL 8f/	.
16AL 16D\	16ddL 16f/	.
16AJJ 16D\	16ddJJ 16f/	.
8B 8G\	(>8ddL 8f/	.
8r	8cc 8e/)	.
4r	(>8ee 8g/	.
.	8ddJ 8f/)	.
=29	=29	=29
*^	*	*
4C/	8C\L	8cc 8e/	.
.	8GJ 8E\	4cc 4e`>^</	.
*rep	*rep	*	*
4C/	8C\L	.	.
.	8GJ 8E\	(>16ddLL 16f/	.
.	.	16ccJJ 16e/)	.
*Xrep	*Xrep	*	*
8FF\L	4ryy	(>16bLL 16d/	.
.	.	16cc 16e/	.
8GJ 8F 8D\	.	16dd 16f/	.
.	.	16bJJ 16d/)	.
!!LO:LB:g=original
*v	*v	*	*
=30	=30	=30
8G 8E 8C\	8cc 8e/	f
8r	(<16cc/LL	.
.	16b/JJ)	.
4r	(<16dd/LL	.
.	16cc/)	.
.	16b'</	.
.	16a'</JJ	.
4F 4D 4BB 4GG/	8g'</L	.
.	(>8qb\	.
.	16a/L)	.
.	16g'>/JJ	.
=31	=31	=31
8E 8C/	8g'</L	.
8r	(<16cc/L	.
.	16b/JJ)	.
4r	(<16dd/LL	.
.	16cc/)	.
.	16b'</	.
.	16a'</JJ	.
4F 4D 4BB 4GG/	8g'</L	.
.	(>8qb\	.
.	16a/L)	.
.	16g'>/JJ	.
=32	=32	=32
8EL 8C\	8cc'>\L	.
16GL 16E 16C\	(>16gg\L	.
16GJJ 16E 16C\	16ff\JJ	.
*tremolo	*	*
8GL 8E 8C\	16ee\LL	.
.	16dd\	.
8GJ 8E 8C\	16cc\	.
.	16b\JJ)	.
8AL 8F\	(>16a\LL	.
.	16cc#X\)	.
8AJ 8F\	(>16dd\	.
.	16ff\JJ)	.
*Xtremolo	*	*
!!LO:LB:g=original
=33	=33	=33
8GL 8GG\	(>16ee\LL	.
.	16ff\	.
16eL 16c 16G\	16ee\	.
16eJJ 16c 16G\	16dd#X\JJ)	.
*tremolo	*	*
8eL 8c 8G\	16ee'>\LL	.
.	(>16cc\	.
8eJ 8c 8G\	16b\	.
.	16cc\JJ	.
8fL 8d 8G\	16dd#\LL)	.
.	(>16gg\	.
8fJ 8d 8G\	16aa\	.
.	16bb\JJ	.
*Xtremolo	*	*
=34	=34	=34
8eL 8c\	8ccc\L)	.
8G\J	(>16ccc\L	.
.	16bb\JJ)	.
*rep	*	*
8eL 8c\	(>16ddd\LL	.
.	16ccc\)	.
8G\J	16bb'>\	.
.	16aa'>\JJ	.
*Xrep	*	*
8fL 8d 8B\	8gg'>\L	.
.	(<8qbb/	.
8G\J	16aa\L)	.
.	16gg'>\JJ	.
=35	=35	=35
*rep	*	*
8eL 8c\	8gg'>\L	.
8G\J	(>16ccc\L	.
.	16bb\JJ)	.
8eL 8c\	(>16ddd\LL	.
.	16ccc\)	.
8G\J	16bb'>\	.
.	16aa'>\JJ	.
8fL 8d 8B\	8gg'>\L	.
.	(<8qbb/	.
8G\J	16aa\L)	.
.	16gg'>\JJ	.
*Xrep	*	*
!!LO:LB:g=original
=36	=36	=36
8eL 8c\	8ccc'>\L	.
16cL 16G 16E 16C\	(>16ggg\L	.
16cJJ 16G 16E 16C\	16fff\JJ	.
*tremolo	*	*
8cL 8G 8E 8C\	16eee\LL	.
.	16ddd\	.
8cJ 8G 8E 8C\	16ccc\	.
.	16bb\JJ)	.
8dL 8A 8F\	(>16aa\LL	.
.	16ccc#X\)	.
8dJ 8A 8F\	(>16ddd\	.
.	16fff\JJ)	.
*Xtremolo	*	*
=37	=37	=37
8GL 8GG\	(>16eee\LL	.
.	16fff\	.
16eL 16c 16G\	16eee\	.
16eJJ 16c 16G\	16ddd#X\JJ)	.
*tremolo	*	*
8eL 8c 8G\	16eee'>\LL	.
.	(>16ccc\	.
8eJ 8c 8G\	16bb\	.
.	16ccc\JJ)	.
8fL 8d 8G\	16ddd#\LL	.
.	(>16gg\	.
8fJ 8d 8G\	16aa\	.
.	16bb\JJ)	.
*Xtremolo	*	*
=38	=38	=38
8eL 8c\	8ccc\L	.
16cL 16C\	16cccL 16gg 16ee\	.
16cJJ 16C\	16cccJJ 16gg 16ee\	.
4c 4C\	4ccc 4gg 4ee\	.
4c\	4aa#X 4ee 4a#X\	.
!!LO:LB:g=original
=39	=39	=39
2B\	2bb 2dd#X 2b\	.
4c\	4aa 4ee 4cc\	.
=40	=40	=40
4d\	16ggLL 16dd 16b'>\	.
.	(>16dd\	.
.	16cc#X\	.
.	16dd\JJ)	.
4r	16bbLL 16gg 16dd'>\	.
.	(>16gg\	.
.	16ff#X\	.
.	16gg\JJ)	.
*clefG2	*	*
8.cc 8.a 8.f#X 8.d/	(>8ccc\L	.
.	16bb\Jk)	.
!	!LO:TX:b:Bi:t=Segue\nAllegretto.	!
16r;>	16r;>	.
!!LO:PB:g=original
=41||	=41||	=41||
*>C	*>C	*
*clefF4	*clefG2	*
*k[f#]	*k[f#]	*
*M3/8	*M3/8	*
!	!LO:TX:t=P:problem:w źródle zapisane jest metrum 3/4 [pomyłka skryptora]	!
!LO:TX:t=P:problem:w źródle zapisane jest metrum 3/4 [pomyłka skryptora]	!	!
!	!LO:TX:a:Bi:t=Allegretto:rj	!
8GG/L	8r	.
8D/	8gL 8d 8B/	.
8G/J	8gJ 8d 8B/	.
=42	=42	=42
*rep	*rep	*
8GG/L	8r	.
8D/	8gL 8d 8B/	.
8G/J	8gJ 8d 8B/	.
*Xrep	*Xrep	*
=43	=43	=43
*rep	*rep	*
8GG/L	8r	.
8D/	8gL 8d 8B/	.
8G/J	8gJ 8d 8B/	.
*Xrep	*Xrep	*
=44Xrep	=44	=44
!LO:TX:t=P:problem:mixed beam	!	!
8GG/L	8r	.
8B 8G 8D\	8bbL 8b'>\	.
8BJ 8G 8D\	8cccJ 8cc'>\	.
=45	=45	=45
*rep	*	*
!LO:TX:t=P:problem:mixed beam	!	!
8GG/L	16ddd 16dd\	.
.	16r	.
8B 8G 8D\	8.eeeL 8.ee\	.
8BJ 8G 8D\	.	.
.	16dddJk 16dd\	.
*Xrep	*	*
!!LO:LB:g=original
=46	=46	=46
16D 16DD/	16ddd 16dd\	.
16r	16r	.
8cL 8F# 8D\	8.cccL 8.cc\	.
8cJ 8F# 8D\	.	.
.	16aaJk 16a\	.
=47	=47	=47
!LO:TX:t=P:problem:mixed beam	!	!
8GG/L	16aa 16a\	.
.	16r	.
8B 8G 8D\	4gg 4g\	.
8BJ 8G 8D\	.	.
=48	=48	=48
*rep	*	*
!LO:TX:t=P:problem:mixed beam	!	!
8GG/L	8r	.
8B 8G 8D\	8bbL 8b\	.
8BJ 8G 8D\	8cccJ 8cc\	.
*Xrep	*	*
=49	=49	=49
*rep	*	*
!LO:TX:t=P:problem:mixed beam	!	!
8GG/L	16ddd 16dd\	.
.	16r	.
8B 8G 8D\	8.eeeL 8.ee\	.
8BJ 8G 8D\	.	.
.	16dddJk 16dd\	.
*Xrep	*	*
=50	=50	=50
8D 8DD/	16ddd 16dd\	.
.	16r	.
8cL 8F# 8D\	8.cccL 8.cc\	.
8cJ 8F# 8D\	.	.
.	16aaJk 16a\	.
!!LO:LB:g=original
=51	=51	=51
!LO:TX:t=P:problem:mixed beam	!	!
8GG/L	16aa 16a\	.
.	16r	.
8B 8G 8D\	4gg 4g\	.
8BJ 8G 8D\	.	.
=52	=52	=52
8GG/	8r	.
8BL 8G 8D\	8bbL 8b\	.
8d#XJ 8B 8A 8F#\	8bbJ 8b\	.
=53	=53	=53
*^	*	*
4.E/	8E\L	16bb 16b\	.
.	.	16r	.
.	8e 8B 8G\	8.eeeL 8.ee\	.
.	8eJ 8B 8G\	.	.
.	.	16eeeJk 16ee\	.
=54	=54	=54	=54
4.C/	8C\L	16eee 16ee\	.
.	.	16r	.
.	8A#X 8G 8E\	8.fff#L 8.ff#\	.
.	8A#J 8G 8E\	.	.
.	.	16eeeJk 16ee\	.
=55	=55	=55	=55
4.BB/	8BB\L	16ddd#X 16dd#X\	.
.	.	16r	.
.	8B 8F# 8D#X\	[>4bb [>4b\	.
.	8BJ 8F# 8D#\	.	.
!!LO:LB:g=original
=56	=56	=56	=56
!	!	!LO:TX:a:t=P:w źródle dolna ligatura zmienia kierunek przebiegu po zmianie systemu:problem	!
4.BB/	8BB\L	8bb] 8b\]	.
.	8B 8F# 8D#X\	8bbL 8b'>\	.
.	8BJ 8F# 8D#\	8bbJ 8b'>\	.
*v	*v	*	*
=57	=57	=57
!	!	!LO:DY:b:rj
8D#X 8DD#X/	16ccc 16cc\	f
.	16r	.
!	!	!LO:DY:b:rj
8cL 8A 8F# 8D#\	8.cccL 8.cc\	p
8cJ 8A 8F# 8D#\	.	.
.	16cccJk 16cc\	.
=58	=58	=58
*^	*	*
4.BB/	8BB\L	16ff# 16f#\	.
.	.	16r	.
.	8B 8F# 8D#X\	8.aaL 8.a\	.
.	8BJ 8F# 8D#\	.	.
.	.	16aaJk 16a\	.
*v	*v	*	*
=59	=59	=59
8E 8EE/	16bb 16b\	.
.	16r	.
8BL 8G 8E\	4gg 4g\	.
8BJ 8G 8E\	.	.
=60	=60	=60
*rep	*	*
8E 8EE/	8r	.
8BL 8G 8E\	8bbL 8b\	.
8BJ 8G 8E\	8bbJ 8b\	.
*Xrep	*	*
!!LO:LB:g=original
=61	=61	=61
!	!	!LO:DY:b:rj
8D#X 8DD#X/	16ccc 16cc\	f
.	16r	.
!	!	!LO:DY:b:rj
8cL 8A 8F# 8D#\	8.aaL 8.a\	p
8cJ 8A 8F# 8D#\	.	.
.	16aaJk 16a\	.
=62	=62	=62
*^	*	*
4.BB/	8BB\L	16ff# 16f#\	.
.	.	16r	.
.	8B 8F# 8D#X\	8.aaL 8.a\	.
.	8BJ 8F# 8D#\	.	.
.	.	16aaJk 16a\	.
*v	*v	*	*
=63	=63	=63
8E 8EE/	16bb 16b\	.
.	16r	.
8BL 8G 8E\	[>4gg [>4g\	.
8BJ 8G 8E\	.	.
=64	=64	=64
*	*^	*
8B 8G 8E\	8gg] 8g\]	8ryy	.
8r	8.b/L	4g\	.
8r	.	.	.
.	16ee/Jk	.	.
*	*v	*v	*
=65	=65	=65
4B\	(<8dd#XL 8f#/	.
.	8bJ 8d#X/)	.
8G#X\	8ddn 8b 8e'</	.
!!LO:LB:g=original
=66	=66	=66
4A\	(<8cc#XL 8a 8e/	.
.	8aJ 8e 8c#X/)	.
8F#\	8ccn 8a 8d/	.
=67	=67	=67
4G\	(<8bL 8g 8d/	.
.	8.gJ 8.d 8.B/)	.
8E\	.	.
.	16b 16g/	.
=68	=68	=68
16D#X\	16a 16f#/	.
16r	16r	.
(<8D#/L	8aL 8f#/	.
16E/L	8gJ 8e/	.
16AA#X/JJ	.	.
=69	=69	=69
*tremolo	*	*
!	!	!LO:DY:b:rj
(<32BB/LLL)	16g 16e/	ff
32AA#X/	.	.
32BB/	16r	.
32AA#X/	.	.
!	!LO:TX:t=P:problem:mixed beam	!
32BB/	8.f#L 8.d#X/	.
32AA#X/	.	.
32BB/	.	.
32AA#X/	.	.
32BB/	.	.
32AA#X/	.	.
32BB/	16ddd#XJk 16aa 16ff#\	.
32AA#X/JJJ)	.	.
!!LO:PB:g=original
=70	=70	=70
(<32BB/LLL	8eeeL 8bb 8gg#X 8ee\	.
32AA#X/	.	.
32BB/	.	.
32AA#X/	.	.
32BB/	8ddd#X 8bb 8ff#\	.
32AA#X/	.	.
32BB/	.	.
32AA#X/	.	.
32BB/	8eeeJ 8bb 8gg# 8ee\	.
32AA#X/	.	.
32BB/	.	.
32AA#X/JJJ)	.	.
=71	=71	=71
*rep	*	*
(<32BB/LLL	4ddd#X 4bb 4ff#\	.
32AA#X/	.	.
32BB/	.	.
32AA#X/	.	.
32BB/	.	.
32AA#X/	.	.
32BB/	.	.
32AA#X/	.	.
!	!	!LO:DY:b:rj
32BB/	8dd#X 8b 8f#/	p
32AA#X/	.	.
32BB/	.	.
32AA#X/JJJ)	.	.
*Xrep	*	*
=72	=72	=72
*rep	*	*
(<32BB/LLL	8eeL 8b 8g/	.
32AA#X/	.	.
32BB/	.	.
32AA#X/	.	.
32BB/	8dd#X 8b 8f#/	.
32AA#X/	.	.
32BB/	.	.
32AA#X/	.	.
32BB/	8eeJ 8b 8g/	.
32AA#X/	.	.
32BB/	.	.
32AA#X/JJJ)	.	.
*Xrep	*	*
=73	=73	=73
*rep	*	*
(<32BB/LLL	4dd#X 4b 4f#/	.
32AA#X/	.	.
32BB/	.	.
32AA#X/	.	.
32BB/	.	.
32AA#X/	.	.
32BB/	.	.
32AA#X/	.	.
!	!	!LO:DY:b:rj
32BB/	8ddd#X 8bb 8ff#\	ff
32AA#X/	.	.
32BB/	.	.
32AA#X/JJJ)	.	.
*Xrep	*	*
=74	=74	=74
*rep	*	*
(<32BB/LLL	8eeeL 8bb 8gg 8ee\	.
32AA#X/	.	.
32BB/	.	.
32AA#X/	.	.
32BB/	8ddd#X 8bb 8ff#\	.
32AA#X/	.	.
32BB/	.	.
32AA#X/	.	.
32BB/	8eeeJ 8bb 8gg 8ee\	.
32AA#X/	.	.
32BB/	.	.
32AA#X/JJJ)	.	.
*Xrep	*	*
!!LO:LB:g=original
=75	=75	=75
(<32BB/LLL	4ddd#X 4bb 4ff#\	.
32AA#X/	.	.
32BB/	.	.
32AA#X/	.	.
32BB/	.	.
32AA#X/	.	.
32BB/	.	.
32AA#X/	.	.
!	!	!LO:DY:b:rj
32BB/	8dd#X 8b 8f#/	p
32AA#X/	.	.
32BB/	.	.
32AA#X/JJJ)	.	.
=76	=76	=76
*rep	*	*
(<32BB/LLL	8eeL 8b 8g/	.
32AA#X/	.	.
32BB/	.	.
32AA#X/	.	.
32BB/	8dd#X 8b 8f#/	.
32AA#X/	.	.
32BB/	.	.
32AA#X/	.	.
32BB/	8eeJ 8b 8g/	.
32AA#X/	.	.
32BB/	.	.
32AA#X/JJJ)	.	.
*Xrep	*	*
*Xtremolo	*	*
=77	=77	=77
4BB/	4dd#X 4b 4f#/	.
16r	16r	.
!	!	!LO:DY:b:rj
16B 16BB\	16b 16f# 16d#X/	f
=78	=78	=78
4B 4BB\	4b 4f# 4d#X/	.
16r	16r	.
16F# 16FF#/	16dd#X 16b 16f#/	.
=79	=79	=79
4F# 4FF#/	4dd#X 4b 4f#/	.
16r	16r	.
16D#X 16DD#X/	16ff# 16dd# 16b\	.
!!LO:LB:g=original
=80	=80	=80
4D#X 4DD#X/	4ff# 4dd#X 4b\	.
16r	16r	.
16BB 16BBB/	16bb 16ff# 16dd# 16b\	.
=81	=81	=81
8BB 8BBB/	8bb 8ff# 8dd#X 8b\	.
8r	8r	.
!	!LO:TX:a:t=[segno]:problem:znak [segno] nad podwójną kreską taktową	!
8G 8GG/	8bb 8gg 8ffn 8ddn\	.
!!LO:LB:g=original
=82||	=82||	=82||
*>D	*>D	*
*k[]	*k[]	*
*M3/4	*M3/4	*
*^	*	*
!	!	!LO:TX:b:Bi:t=All(egr)o.\nmod(era)to:problem:w źródle przed dziubkiem akolady	!
!	!	!LO:TX:a:Bi:t=Coda:rj	!
!	!	!	!LO:DY:b:rj
4C/	8C\L	16cc\LL	f
.	.	16ee\	.
.	8cJ 8G 8E\	16gg\	.
.	.	16ccc\JJ	.
4F/	8F\L	16cc\LL	.
.	.	16ff\	.
.	8cJ 8A\	16aa\	.
.	.	16ccc\JJ	.
!LO:TX:t=P:problem:mixed beam	!	!	!
8GG/L	4ryy	16gg\LL	.
.	.	16ff#X\	.
8BJ 8G 8F 8D\	.	16aa\	.
.	.	16gg\JJ	.
=83	=83	=83	=83
*rep	*rep	*rep	*
!LO:TX:a:t=P:problem with rendering:problem	!	!	!
4C/	8C\L	16cc\LL	.
.	.	16ee\	.
.	8cJ 8G 8E\	16gg\	.
.	.	16ccc\JJ	.
4F/	8F\L	16cc\LL	.
.	.	16ff\	.
.	8cJ 8A\	16aa\	.
.	.	16ccc\JJ	.
!LO:TX:t=P:problem:mixed beam	!	!	!
8GG/L	4ryy	16gg\LL	.
.	.	16ff#X\	.
8BJ 8G 8F 8D\	.	16aa\	.
.	.	16gg\JJ	.
*Xrep	*Xrep	*Xrep	*
*v	*v	*	*
=84	=84	=84
16cLL 16G 16E 16C\	8eeL 8cc'>\	.
16c 16C\	.	.
16B 16BB\	16ffL 16dd'>\	.
16AJJ 16AA\	16ggJJ 16ee'>\	.
16GLL 16GG\	16aaLL 16ff'>\	.
16F 16FF\	16bb 16gg'>\	.
16E 16EE\	16ccc 16aa'>\	.
16DJJ 16DD\	16dddJJ 16bb'>\	.
8C 8CC/	8eee 8ccc'>\	.
8E 8EE/	8gg#X 8ee 8dd 8b^<\	.
!!LO:LB:g=original
=85	=85	=85
8A 8AA/	8aa 8ee 8cc\	.
!	!LO:TX:a:t=P:diminuendolike accent:problem	!
(>8A-X\L	(>8ff#XL 8dd#X 8cc^<\	.
8G\J)	8ggJ 8ee 8cc\)	.
!	!LO:TX:a:t=P:diminuendolike accent:problem	!
(>8A-\L	(>8ff#L 8dd# 8cc^<\	.
8G\J)	8ggJ 8ee 8cc\)	.
!	!LO:TX:a:t=P:diminuendolike accent:problem	!
(>8F#X\	(>8aa 8dd#X 8cc^<\	.
=86	=86	=86
8G\L)	8ggL 8ee 8cc\)	.
16GL 16GG\	16ggL 16ee 16cc\	.
16GJJ 16GG\	16ggJJ 16ee 16cc\	.
*tremolo	*	*
8GL 8GG\	8ggL 8ee 8cc\	.
8G 8GG\	8ggJ 8ee 8cc\	.
8G 8GG\	8bbL 8gg 8ff 8dd\	.
8GJ 8GG\	8bbJ 8gg 8ff 8dd\	.
*Xtremolo	*	*
=87	=87	=87
8cL 8C'>\	4ccc 4gg 4ee 4cc\	.
(>16c\L	.	.
16B\JJ)	.	.
(>16d\LL	4r	.
16c\)	.	.
16B'>\	.	.
16A'>\JJ	.	.
16G'>\LL	4bb 4gg 4ff 4dd\	.
16F'>\	.	.
16E'>\	.	.
16D'>\JJ	.	.
!!LO:LB:g=original
=88	=88	=88
8C'>\L	4ccc 4gg 4ee 4cc\	.
(>16c\L	.	.
16B\JJ)	.	.
(>16d\LL	4r	.
16c\)	.	.
16B'>\	.	.
16A'>\JJ	.	.
16G'>\LL	4bb 4gg 4ff 4dd\	.
16F'>\	.	.
16E'>\	.	.
16D'>\JJ	.	.
=89	=89	=89
*tremolo	*	*
(<32C/LLL	4ccc 4gg 4ee 4cc\	.
32BB/	.	.
32C/	.	.
32BB/	.	.
32C/	.	.
32BB/	.	.
32C/	.	.
32BB/	.	.
32C/	4r	.
32BB/	.	.
32C/	.	.
32BB/	.	.
32C/	.	.
32BB/	.	.
32C/	.	.
32BB/	.	.
32C/	4r	.
32BB/	.	.
32C/	.	.
32BB/	.	.
32C/	.	.
32BB/	.	.
32C/	.	.
32BB/JJJ)	.	.
=90	=90	=90
(<32C/LLL	4eee 4ccc 4gg 4ee\	.
32BB/	.	.
32C/	.	.
32BB/	.	.
32C/	.	.
32BB/	.	.
32C/	.	.
32BB/	.	.
32C/	4r	.
32BB/	.	.
32C/	.	.
32BB/	.	.
32C/	.	.
32BB/	.	.
32C/	.	.
32BB/	.	.
32C/	8.r	.
32BB/	.	.
32C/	.	.
32BB/	.	.
32C/	.	.
32BB/	.	.
32C/	16c 16G< 16E</	.
32BB/JJJ)	.	.
*Xtremolo	*	*
=91	=91	=91
!LO:TX:a:t=P:notes positions:problem	!	!
2.C 2.CC\	2.c 2.G< 2.E</	.
==	==	==
*-	*-	*-
!!title: @{OTL};
!!!RDF**kern: > = above
!!!RDF**kern: < = below
!!!RDF**kern: N = linked
!!!RDF**kern: i = editorial accidental
!!!EED: Wojciech Jakubiak-Danek
!!!EST: 2021-05-03
!!!URL-scan: http://repozytorium.nifc.pl/skany/pl-wtm-nut--r1335
!!!ONB-nifc:
!!!AIN: 1 empty
!!!ENC: Krzysztof Stępień
!!!END: 2021-04-10
